assets/icons/uEA03-sort-desc.svg

<?xml version="1.0" encoding="UTF-8" standalone="no"?>
<svg
   xmlns:dc="http://purl.org/dc/elements/1.1/"
   xmlns:cc="http://creativecommons.org/ns#"
   xmlns:rdf="http://www.w3.org/1999/02/22-rdf-syntax-ns#"
   xmlns:svg="http://www.w3.org/2000/svg"
   xmlns="http://www.w3.org/2000/svg"
   xmlns:sodipodi="http://sodipodi.sourceforge.net/DTD/sodipodi-0.dtd"
   xmlns:inkscape="http://www.inkscape.org/namespaces/inkscape"
   version="1.1"
   width="896"
   height="1232"
   viewBox="0 0 896 1232"
   id="svg2995"
   inkscape:version="0.48.5 r10040"
   sodipodi:docname="uEA03-sort-desc.svg">
  <metadata
     id="metadata3002">
    <rdf:RDF>
      <cc:Work
         rdf:about="">
        <dc:format>image/svg+xml</dc:format>
        <dc:type
           rdf:resource="http://purl.org/dc/dcmitype/StillImage" />
        <dc:title />
      </cc:Work>
    </rdf:RDF>
  </metadata>
  <defs
     id="defs3000" />
  <sodipodi:namedview
     pagecolor="#ffffff"
     bordercolor="#666666"
     borderopacity="1"
     objecttolerance="10"
     gridtolerance="10"
     guidetolerance="10"
     inkscape:pageopacity="0"
     inkscape:pageshadow="2"
     inkscape:window-width="980"
     inkscape:window-height="678"
     id="namedview2998"
     showgrid="false"
     inkscape:zoom="0.19155844"
     inkscape:cx="448"
     inkscape:cy="838.68296"
     inkscape:window-x="243"
     inkscape:window-y="128"
     inkscape:window-maximized="0"
     inkscape:current-layer="svg2995" />
  <path
     d="M 89.0541,640.01304 220.01529,772.06509 350.97656,640.01304 440.01532,730.16754 228.1772,944.14425 220.01529,952 l -0.37092,-0.37406 -0.371,0 L 0.01532,730.16754 z"
     id="icon104-2"
     inkscape:connector-curvature="0" />
  <path
     d="m 220,158 -0.34375,0.375 -0.375,0 L 0,379.84375 89.0625,470 220,337.9375 350.96875,470 440,379.84375 228.1875,165.875 220,158 z m -0.15625,19.5 c 67.09044,67.22266 133.55352,134.91524 200.46875,202.34375 l -69.5,70.25 C 307.1962,406.08496 263.55239,362.10326 220,318.03125 176.45985,362.09381 132.82253,406.07322 89.1875,450.125 L 19.6875,379.84375 219.84375,177.5 z"
     id="path3000"
     inkscape:connector-curvature="0" />
</svg>

<svg xmlns="http://www.w3.org/2000/svg" width="896" height="1232" viewBox="0 0 896 1232"><path d="M89.054 640.013l130.96 132.052 130.963-132.052 89.038 90.155-211.838 213.976-8.162 7.856-.37-.374h-.372L.015 730.168zM220 158l-.344.375h-.375L0 379.845 89.063 470 220 337.937 350.97 470 440 379.844l-211.813-213.97L220 158zm-.156 19.5c67.09 67.223 133.553 134.915 200.47 202.344l-69.502 70.25c-43.616-44.01-87.26-87.99-130.812-132.063-43.54 44.064-87.177 88.043-130.813 132.095l-69.5-70.28L219.845 177.5z"/></svg>
